__todo__/zoom.svg

<svg height="117" preserveAspectRatio="xMidYMid" viewBox="0 0 512 117" width="512" xmlns="http://www.w3.org/2000/svg"><path d="m107.471744 114.705655h-91.1240352c-5.9681876 0-11.79080972-3.202442-14.55655521-8.588368-3.20244214-6.2593183-2.03791773-13.6831615 2.91131104-18.4868247l63.46658067-63.4665807h-45.5620178c-12.5186374 0-22.56266053-10.1895886-22.56266053-22.56266053h83.99132353c5.9681876 0 11.7908097 3.20244215 14.5565552 8.58836753 3.2024423 6.2593188 2.0379173 13.6831619-2.9113111 18.4868251l-63.4665806 63.4665807h52.5491642c12.5186375 0 22.7082258 10.1895886 22.7082258 22.5626606zm360.711438-114.705655c-13.100899 0-24.746144 5.67705653-32.897815 14.7021208-8.15167-9.02506427-19.796915-14.7021208-32.897814-14.7021208-24.163882 0-43.960797 20.6703084-43.960797 44.83419v69.871465c12.518637 0 22.562661-10.189589 22.562661-22.5626606v-47.4543699c0-11.6452442 9.025064-21.5437017 20.670308-21.9803984 12.227506-.4366966 22.271529 9.3161953 22.271529 21.3981362v48.0366321c0 12.5186376 10.189589 22.5626606 22.562661 22.5626606v-70.1625961c0-11.6452441 9.025064-21.5437017 20.670308-21.9803983 12.227507-.4366967 22.27153 9.3161953 22.27153 21.3981361v48.0366322c0 12.5186371 10.189588 22.5626601 22.563458 22.5626601v-69.8714645c.144768-24.0183161-19.652147-44.6886245-43.816029-44.6886245zm-246.588045 58.2262208c0 32.169987-26.056234 58.2262212-58.226221 58.2262212s-58.22622-26.0562342-58.22622-58.2262212 26.056233-58.2262208 58.22622-58.2262208 58.226221 26.0562338 58.226221 58.2262208zm-22.56266 0c0-19.6513495-16.012211-35.6635602-35.663561-35.6635602-19.651349 0-35.66356 16.0122107-35.66356 35.6635602s16.012211 35.6635602 35.66356 35.6635602c19.65135 0 35.663561-16.0122107 35.663561-35.6635602zm148.040166 0c0 32.169987-26.056234 58.2262212-58.226221 58.2262212s-58.226221-26.0562342-58.226221-58.2262212 26.056234-58.2262208 58.226221-58.2262208 58.226221 26.0562338 58.226221 58.2262208zm-22.562661 0c0-19.6513495-16.01221-35.6635602-35.66356-35.6635602-19.651349 0-35.66356 16.0122107-35.66356 35.6635602s16.012211 35.6635602 35.66356 35.6635602c19.65135 0 35.66356-16.0122107 35.66356-35.6635602z" fill="#0b5cff"/></svg>

<?xml version="1.0" encoding="UTF-8"?>
<svg width="512px" height="117px" viewBox="0 0 512 117" version="1.1" xmlns="http://www.w3.org/2000/svg" xmlns:xlink="http://www.w3.org/1999/xlink" preserveAspectRatio="xMidYMid">
    <title>Zoom</title>
    <g>
        <path d="M107.471744,114.705655 L16.3477088,114.705655 C10.3795212,114.705655 4.55689908,111.503213 1.79115359,106.117287 C-1.41128855,99.8579687 -0.246764136,92.4341255 4.70246463,87.6304623 L68.1690453,24.1638816 L22.6070275,24.1638816 C10.0883901,24.1638816 0.0443669685,13.974293 0.0443669685,1.60122107 L84.0356905,1.60122107 C90.0038781,1.60122107 95.8265002,4.80366322 98.5922457,10.1895886 C101.794688,16.4489074 100.630163,23.8727505 95.6809346,28.6764137 L32.214354,92.1429944 L84.7635182,92.1429944 C97.2821557,92.1429944 107.471744,102.332583 107.471744,114.705655 Z M468.183182,0 C455.082283,0 443.437038,5.67705653 435.285367,14.7021208 C427.133697,5.67705653 415.488452,0 402.387553,0 C378.223671,0 358.426756,20.6703084 358.426756,44.83419 L358.426756,114.705655 C370.945393,114.705655 380.989417,104.516066 380.989417,92.1429944 L380.989417,44.6886245 C380.989417,33.0433803 390.014481,23.1449228 401.659725,22.7082261 C413.887231,22.2715295 423.931254,32.0244214 423.931254,44.1063623 L423.931254,92.1429944 C423.931254,104.661632 434.120843,114.705655 446.493915,114.705655 L446.493915,44.5430589 C446.493915,32.8978148 455.518979,22.9993572 467.164223,22.5626606 C479.39173,22.1259639 489.435753,31.8788559 489.435753,43.9607967 L489.435753,91.9974289 C489.435753,104.516066 499.625341,114.560089 511.999211,114.560089 L511.999211,44.6886245 C512.143979,20.6703084 492.347064,0 468.183182,0 Z M221.595137,58.2262208 C221.595137,90.3962078 195.538903,116.452442 163.368916,116.452442 C131.198929,116.452442 105.142696,90.3962078 105.142696,58.2262208 C105.142696,26.0562338 131.198929,0 163.368916,0 C195.538903,0 221.595137,26.0562338 221.595137,58.2262208 Z M199.032477,58.2262208 C199.032477,38.5748713 183.020266,22.5626606 163.368916,22.5626606 C143.717567,22.5626606 127.705356,38.5748713 127.705356,58.2262208 C127.705356,77.8775703 143.717567,93.889781 163.368916,93.889781 C183.020266,93.889781 199.032477,77.8775703 199.032477,58.2262208 Z M347.072643,58.2262208 C347.072643,90.3962078 321.016409,116.452442 288.846422,116.452442 C256.676435,116.452442 230.620201,90.3962078 230.620201,58.2262208 C230.620201,26.0562338 256.676435,0 288.846422,0 C321.016409,0 347.072643,26.0562338 347.072643,58.2262208 Z M324.509982,58.2262208 C324.509982,38.5748713 308.497772,22.5626606 288.846422,22.5626606 C269.195073,22.5626606 253.182862,38.5748713 253.182862,58.2262208 C253.182862,77.8775703 269.195073,93.889781 288.846422,93.889781 C308.497772,93.889781 324.509982,77.8775703 324.509982,58.2262208 Z" fill="#0B5CFF"></path>
    </g>
</svg>
